X:1
T:Title
%%score { ( 1 3 4 ) | ( 2 5 ) }
L:1/8
M:12/8
K:G
V:1 treble nm="Grand Piano"
V:3 treble 
V:4 treble 
V:2 bass 
V:5 bass 
V:1
 z6 z3[Q:1/4=100] D3 | .[B,D]6 .[DB]6 | [DA]3 [Fd]3 d6 | .[Gc]6 .[Gd]6 | A6- A3[K:bass] z3 | %5
 G,2 G, z[K:treble] B[CDA] [DG]2- [B,D-G-] [B,DG]2 [B,=FG] | .C3 z3 [Gd]6 | %7
 d2- [A,d-] [A,-d]A,[DGB] [Fc]3 FEF |[M:9/8] G8- G |[M:3/8] [B,G]3 |[M:6/4] .[Gc]6 z6 | [GB]6 z6 | %12
 .[FA]6 .[G^c]6 |[M:27/16] F/-F/-F-<FG/-G/-G-<G z/ z/ z/ z/ z/ z/ z/ z D/-D/-D-<D | %14
[M:6/4] z G, .G,2 BA [G,B,G]3 [B,=FG]3 | [EG]2- [CE-G-][C-E-G][CE]e .d3 d3 | .[Fd]6 z6 | %17
[M:9/8] .[DG]3 G6 |] %18
V:2
 z6 z3 D,3 | G,,2 G,, G,,2 [G,,G,] [G,,G,]2 G,, z CG,, | z6[K:treble] G6 | %3
 [E,G,]3 z [D,B,][C,C] [G,B,]3 z[K:treble] G[B,D] | [A,DF][A,D][A,D][K:bass] A,,A,,A,, D,3 z2 C | %5
 G,,2 G,, z DG,, G,,2 G,, G,,2 G, | C,2 C, z[K:treble] c[K:bass][C,C] [G,B,]2 G, G,2 [G,B,G] | %7
 [D,A,]2 D, z AD, [D,A,]3 [D,CD]3 |[M:9/8] G,,2 G,, C,2 C, G,,3 |[M:3/8] G,3 | %10
[M:6/4] C,C, .C,2[K:treble] GG[K:bass] .C,3 C,3 | G,2 G, G,2[K:treble] G .[G,DG]3 [G,DG]3 | %12
 [D,D]D,D,D,D,D, [A,,A,]A,,A,,A,,[A,,A,][A,,A,] | %13
[M:27/16] [D,A,]-<[D,A,]D,[D,B,]D,D,[D,C]/-[D,C]/-[D,C]/-[D,C]/-[D,C]/-[D,C]-<[D,C][D,F,]/-[D,F,]/-[D,F,]-<[D,F,] | %14
[M:6/4] [G,,G,]G,, .G,,2 DC G,,3 G,3 | C,2 .C,2[K:treble] cG .[G,B,G]3 [G,B,G]3 | z6 z2 z [D,C]3 | %17
[M:9/8] G,,G,,G,, G,,G,,G,, G,,3 |] %18
V:3
 x12 | G,2 G, z G[CA] z2 G, z A[G,B,G] | z2 [D,F,] z2 C z2 B, B,2 B | z3 [E,C][Gd][Ge] z3 z BG | %4
 z FF [^CE][DF][EG] [DF]3[K:bass] [F,D]3 | .[B,D]6[K:treble] .B,3 z3 | %6
 [EG]2- [CE-G-] [C-E-G][CE][Ge] z2 B, B,2 d | F6 z6 |[M:9/8] [B,D]2 [B,D] [CE]2 [CE] [B,D]3 | %9
[M:3/8] x3 |[M:6/4] EE .E2 cc .[EGc]3 [EGc]3 | D2 D D2 B .B3 B3 | %12
 z DDD[A,FA][A,FA] z A,A,A,[GB][G^c] | %13
[M:27/16] d-<d-[A,d-]d-[B,d-][B,d-][Ad]/-[Ad]/-[Ad]/-[Ad]/-[Ad]/-[Ad]-<[Ad] z/ z/ z C | %14
[M:6/4] .[B,D]6 z6 | .C6 z6 | z A,A,A,[DFA][B,GB] [Fc]3 FEF |[M:9/8] B,B,[B,D] E[DF][CE] [B,D]3 |] %18
V:4
 x12 | z3 .G,3 z3 .G,3 | x12 | z6 z3 .B,3 | x9[K:bass] x3 | z3 .G,3[K:treble] z6 | x12 | x12 | %8
[M:9/8] x9 |[M:3/8] x3 |[M:6/4] z2 z .E3 z6 | x12 | x12 |[M:27/16] x27/2 |[M:6/4] z2 z .G,3 z6 | %15
 x12 | x12 |[M:9/8] x9 |] %18
V:5
 x12 | z6 z3 .G,,3 | .[D,F,]3 [D,A,]2 D,[K:treble] [G,B,]2 G, G,2 [G,G] | z6 z3 .G,3[K:treble] | %4
 z6[K:bass] z3 D,3 | z3 .G,,3 z6 | z3 .C,3[K:treble][K:bass] z6 | z3 .D,3 z6 |[M:9/8] x9 | %9
[M:3/8] x3 |[M:6/4] z2 z .C,3[K:treble][K:bass] z6 | x5[K:treble] x7 | x12 |[M:27/16] x27/2 | %14
[M:6/4] z2 z .G,,3 z6 | z2 z .C,3[K:treble] z6 | [D,A,]D,D,D,D,D, [D,A,]3 D2 D |[M:9/8] x9 |] %18

